dist/flags/m/008.svg

<svg width="20" height="15" viewBox="0 0 20 15" fill="none" xmlns="http://www.w3.org/2000/svg">
<mask id="mask0" mask-type="alpha" maskUnits="userSpaceOnUse" x="0" y="0" width="20" height="15">
<rect width="20" height="15" fill="white"/>
</mask>
<g mask="url(#mask0)">
<path fill-rule="evenodd" clip-rule="evenodd" d="M0 0H20V15H0V0Z" fill="#F50100"/>
<path fill-rule="evenodd" clip-rule="evenodd" d="M10.3125 12.0293L10.3081 13.5C10.3081 13.5 9.62446 12.3054 9.67862 12.3054C9.73277 12.3054 9.93575 11.9101 10.0193 11.714C10.1029 11.5179 9.83783 11.3789 9.79346 11.5184C9.74908 11.6579 9.56751 11.8549 9.31921 12.013C9.07091 12.171 9.01606 11.7749 9.01606 11.682C9.01606 11.6104 9.11328 11.6138 9.26652 11.6192C9.31233 11.6208 9.36315 11.6226 9.41787 11.6226C9.65563 11.6226 9.67862 11.0955 9.62446 10.9606C9.59423 10.8853 9.52439 10.961 9.41642 11.078C9.33096 11.1705 9.22161 11.289 9.08912 11.3789C8.78926 11.5825 8.62299 11.3679 8.62299 11.1754C8.62299 11.0674 8.6849 11.0697 8.78076 11.0732C8.85586 11.076 8.95179 11.0795 9.05514 11.0314C9.29043 10.9219 9.45876 10.463 9.41787 10.4225C9.38508 10.3901 9.19355 10.5026 8.98013 10.6281C8.92735 10.6591 8.87323 10.6909 8.81985 10.7215C8.55058 10.8758 8.43811 10.5115 8.43811 10.4225C8.43811 10.3336 8.69096 10.3214 8.81985 10.3214C8.94873 10.3214 9.4113 10.0395 9.67862 9.68275C9.94594 9.32595 9.86995 8.90223 9.67862 8.76474C9.5458 8.6693 9.45496 8.80629 9.3565 8.95478C9.31312 9.0202 9.26826 9.08785 9.21767 9.13884C9.13699 9.22016 9.0318 9.43649 8.93442 9.63675C8.83219 9.847 8.73857 10.0395 8.69096 10.0395C8.59802 10.0395 8.31528 9.738 8.31528 9.738L7.30599 10.0395C7.30599 10.0395 7.72306 10.2663 7.8603 10.2663C7.99754 10.2663 8.05097 10.5137 8.05097 10.5672C8.05097 10.6206 7.82328 10.6992 7.66172 10.6457C7.50016 10.5923 7.59907 10.4225 7.59907 10.4225L7.06941 10.1181C7.06941 10.1181 6.6577 10.2663 6.6577 10.4225C6.6577 10.5788 6.47162 10.6457 6.25165 10.6457C6.03169 10.6457 6.06083 10.5556 6.25165 10.2663C6.2942 10.2018 6.32508 10.166 6.34738 10.1494C6.36204 10.1498 6.37724 10.1499 6.393 10.1496C6.41145 10.1815 6.3986 10.2663 6.3986 10.2663C6.3986 10.2663 6.98813 10.0468 6.6577 10.1181C6.55556 10.1401 6.46793 10.1485 6.393 10.1496C6.38496 10.1357 6.37097 10.1319 6.34738 10.1494C6.26326 10.1474 6.19711 10.1366 6.14576 10.1283C6.111 10.1226 6.08302 10.1181 6.06083 10.1181C5.973 10.1181 5.625 9.91389 5.625 9.91389C5.625 9.91389 5.75211 9.78425 6.06083 9.78425C6.36956 9.78425 6.25165 9.91389 6.25165 9.91389H6.98813C6.98813 9.91389 6.6577 9.68275 6.5496 9.68275C6.49489 9.68275 6.41926 9.63703 6.34453 9.59187C6.2716 9.5478 6.19954 9.50425 6.14867 9.50425C6.04568 9.50425 6.06083 9.2713 6.25165 9.2713C6.44248 9.2713 6.6577 9.43648 6.6577 9.50425C6.6577 9.57202 7.06941 9.78425 7.06941 9.78425L8.15044 9.50425C8.15044 9.50425 7.99155 9.13884 8.15044 9.13884C8.30933 9.13884 8.81214 8.81301 9.01606 8.40551C9.21999 7.99802 9.1981 7.80809 9.08912 7.80809C8.98014 7.80809 8.88742 7.99028 8.88742 8.06789C8.88742 8.1455 8.62471 8.54628 8.56341 8.63292C8.50211 8.71955 8.28466 8.54628 8.43811 8.334C8.57413 8.14584 8.56746 7.8648 8.56419 7.72693C8.56377 7.70926 8.56341 7.69394 8.56341 7.68146C8.56341 7.57171 8.28466 7.79122 8.28466 8.18221C8.28466 8.5732 7.66823 8.72099 7.49558 8.72099C7.32292 8.72099 7.49558 8.40551 7.82328 8.334C8.08098 8.27776 8.03743 7.94291 8.00707 7.7094C7.99882 7.64597 7.99155 7.59001 7.99155 7.54915C7.99155 7.35789 7.59907 7.82429 7.44622 8.06789C7.29337 8.31149 6.6577 8.89585 6.47162 8.97213C6.28553 9.04841 5.93084 8.80624 5.84533 8.63292C5.78252 8.50561 5.97563 8.48202 6.24146 8.44954C6.33756 8.4378 6.44315 8.42489 6.5496 8.40551C6.95053 8.33251 7.49558 7.54915 7.59907 7.39767C7.70257 7.24619 7.44622 7.1333 7.30599 7.39767C7.16674 7.66018 6.48132 7.90743 6.25635 7.98858L6.25165 7.99028C6.03169 8.06963 5.84533 7.71048 5.84533 7.54915C5.84533 7.45227 5.95472 7.47175 6.12895 7.50277C6.24485 7.52341 6.38944 7.54915 6.5496 7.54915C6.95053 7.54915 7.44622 6.84992 7.44622 6.6749C7.44622 6.49989 7.22668 6.57627 7.06941 6.6749C7.03007 6.69958 6.98464 6.73447 6.93458 6.77291C6.78454 6.88814 6.59288 7.03534 6.3986 7.03534C6.13951 7.03534 5.93084 6.84992 5.93084 6.84992C5.93084 6.84992 5.84533 6.57627 6.06083 6.57627H6.6577C6.97702 6.57627 7.49558 5.89969 7.49558 5.77389C7.49558 5.70529 7.24943 5.81492 6.99376 5.9288C6.78062 6.02373 6.56087 6.12162 6.47162 6.12162C6.27531 6.12162 5.84533 5.93922 5.84533 5.77389C5.84533 5.70433 5.84533 5.67197 5.86139 5.65782C5.88348 5.63834 5.93601 5.65337 6.06083 5.65337C6.15751 5.65337 6.25012 5.67763 6.35225 5.70438C6.47776 5.73725 6.61765 5.77389 6.79712 5.77389C7.01707 5.77389 7.20192 5.60405 7.32181 5.4939C7.37934 5.44104 7.42191 5.40193 7.44622 5.40193C7.52118 5.40193 7.37126 5.14566 7.22668 5.14566C7.16681 5.14566 7.07668 5.1896 6.97106 5.2411C6.82163 5.31395 6.6412 5.40193 6.47162 5.40193C6.18218 5.40193 5.84533 4.9403 5.84533 4.8169C5.84533 4.69351 6.00609 4.73821 6.25165 4.8169C6.49722 4.89559 6.67503 4.95209 7.22668 4.8169C7.77832 4.68172 7.44622 4.48195 7.30599 4.48195H6.25165C5.84526 4.48195 5.84532 3.89471 5.84533 3.78438L5.84533 3.78266C5.84533 3.69958 5.9306 3.74697 6.13896 3.86276C6.19596 3.89443 6.26217 3.93123 6.33837 3.97187C6.61442 4.11911 6.98617 4.09208 7.25076 4.07284C7.32619 4.06736 7.39291 4.06251 7.44622 4.06251C7.68654 4.06251 7.30599 3.78266 7.30599 3.78266C7.30599 3.78266 6.94862 3.78266 6.33837 3.52291C5.72813 3.26316 5.84533 2.55321 5.84533 2.55321C5.84533 2.55321 6.02742 2.29959 6.14867 2.55321C6.26992 2.80682 7.04018 3.4454 7.30599 3.4454C7.47156 3.4454 7.46719 3.39207 7.46354 3.34752C7.46133 3.32054 7.45938 3.29678 7.49558 3.29002C7.59154 3.27208 8.36563 3.53345 8.36563 3.53345C8.68051 3.55609 8.72909 4.02119 8.72909 4.29653C8.72909 4.57186 8.96141 4.8169 9.31921 4.8169C9.58719 4.8169 9.47915 4.41508 9.389 4.07978C9.35878 3.96738 9.33058 3.86247 9.31921 3.78266C9.27395 3.46478 8.28466 3.2811 8.28466 3.2811C7.93461 3.22568 7.99155 3.02555 7.99155 3.02555C8.12311 3.02073 8.31528 2.94153 8.31528 2.94153C8.52637 2.89406 7.44622 2.78851 7.44622 2.78851C7.20683 2.76651 7.30599 2.47671 7.30599 2.47671C7.30599 2.34557 7.40941 2.4154 7.55707 2.5151C7.69847 2.61058 7.88042 2.73344 8.05097 2.73344C8.39961 2.73344 7.94877 2.47671 7.82328 2.47671C7.8059 2.47671 7.79794 2.47671 7.79791 2.47624C7.79774 2.47332 8.10497 2.45219 8.36563 2.29959C8.52751 2.20483 8.67549 2.26217 8.86598 2.33598C9.03152 2.40013 9.22917 2.47671 9.49593 2.47671C9.82136 2.47671 9.81558 2.67728 9.80835 2.92804C9.80284 3.11938 9.79648 3.33993 9.93575 3.52291C10.1639 3.82264 10.27 3.88112 10.3125 3.88977C10.355 3.88112 10.4611 3.82264 10.6892 3.52291C10.8285 3.33993 10.8222 3.11938 10.8166 2.92804C10.8094 2.67728 10.8036 2.47671 11.1291 2.47671C11.3958 2.47671 11.5935 2.40013 11.759 2.33598C11.9495 2.26217 12.0975 2.20483 12.2594 2.29959C12.52 2.45219 12.8273 2.47332 12.8271 2.47624C12.8271 2.47671 12.8191 2.47671 12.8017 2.47671C12.6762 2.47671 12.2254 2.73344 12.574 2.73344C12.7446 2.73344 12.9265 2.61058 13.0679 2.5151C13.2156 2.4154 13.319 2.34557 13.319 2.47671C13.319 2.47671 13.4182 2.76651 13.1788 2.78851C13.1788 2.78851 12.0986 2.89406 12.3097 2.94153C12.3097 2.94153 12.5019 3.02073 12.6335 3.02555C12.6335 3.02555 12.6904 3.22568 12.3403 3.2811C12.3403 3.2811 11.3511 3.46478 11.3058 3.78266C11.2944 3.86247 11.2662 3.96738 11.236 4.07978C11.1458 4.41508 11.0378 4.8169 11.3058 4.8169C11.6636 4.8169 11.8959 4.57186 11.8959 4.29653C11.8959 4.02119 11.9445 3.55609 12.2594 3.53345C12.2594 3.53345 13.0335 3.27208 13.1294 3.29002C13.1656 3.29678 13.1637 3.32054 13.1615 3.34752C13.1578 3.39207 13.1534 3.4454 13.319 3.4454C13.5848 3.4454 14.3551 2.80682 14.4763 2.55321C14.5976 2.29959 14.7797 2.55321 14.7797 2.55321C14.7797 2.55321 14.8969 3.26316 14.2866 3.52291C13.6764 3.78266 13.319 3.78266 13.319 3.78266C13.319 3.78266 12.9385 4.06251 13.1788 4.06251C13.2321 4.06251 13.2988 4.06736 13.3742 4.07284C13.6388 4.09208 14.0106 4.11911 14.2866 3.97187C14.3628 3.93123 14.429 3.89443 14.486 3.86276C14.6944 3.74697 14.7797 3.69958 14.7797 3.78266V3.78438C14.7797 3.89471 14.7797 4.48195 14.3733 4.48195H13.319C13.1788 4.48195 12.8467 4.68172 13.3983 4.8169C13.95 4.95209 14.1278 4.89559 14.3733 4.8169C14.6189 4.73821 14.7797 4.69351 14.7797 4.8169C14.7797 4.9403 14.4428 5.40193 14.1534 5.40193C13.9838 5.40193 13.8034 5.31395 13.6539 5.2411C13.5483 5.1896 13.4582 5.14566 13.3983 5.14566C13.2537 5.14566 13.1038 5.40193 13.1788 5.40193C13.2031 5.40193 13.2457 5.44104 13.3032 5.4939C13.4231 5.60405 13.6079 5.77389 13.8279 5.77389C14.0074 5.77389 14.1472 5.73725 14.2728 5.70438C14.3749 5.67763 14.4675 5.65337 14.5642 5.65337C14.689 5.65337 14.7415 5.63834 14.7636 5.65782C14.7797 5.67197 14.7797 5.70433 14.7797 5.77389C14.7797 5.93922 14.3497 6.12162 14.1534 6.12162C14.0641 6.12162 13.8444 6.02373 13.6312 5.9288C13.3756 5.81493 13.1294 5.70529 13.1294 5.77389C13.1294 5.89969 13.648 6.57627 13.9673 6.57627H14.5642C14.7797 6.57627 14.6942 6.84992 14.6942 6.84992C14.6942 6.84992 14.4855 7.03534 14.2264 7.03534C14.0321 7.03534 13.8405 6.88814 13.6904 6.77291C13.6404 6.73447 13.5949 6.69958 13.5556 6.6749C13.3983 6.57627 13.1788 6.49989 13.1788 6.6749C13.1788 6.84992 13.6745 7.54915 14.0754 7.54915C14.2356 7.54915 14.3802 7.52341 14.496 7.50277C14.6703 7.47175 14.7797 7.45227 14.7797 7.54915C14.7797 7.71048 14.5933 8.06963 14.3733 7.99028L14.3686 7.98858C14.1437 7.90743 13.4583 7.66018 13.319 7.39767C13.1788 7.1333 12.9224 7.24619 13.0259 7.39767C13.1294 7.54915 13.6745 8.33251 14.0754 8.40551C14.1818 8.42489 14.2874 8.4378 14.3835 8.44954C14.6494 8.48202 14.8425 8.50561 14.7797 8.63292C14.6942 8.80624 14.3395 9.04841 14.1534 8.97213C13.9673 8.89585 13.3316 8.31149 13.1788 8.06789C13.0259 7.82429 12.6335 7.35789 12.6335 7.54915C12.6335 7.59001 12.6262 7.64597 12.6179 7.7094C12.5876 7.94291 12.544 8.27776 12.8017 8.334C13.1294 8.40551 13.3021 8.72099 13.1294 8.72099C12.9568 8.72099 12.3403 8.5732 12.3403 8.18221C12.3403 7.79122 12.0616 7.57171 12.0616 7.68146C12.0616 7.69394 12.0612 7.70926 12.0608 7.72693C12.0575 7.8648 12.0509 8.14584 12.1869 8.334C12.3403 8.54628 12.1229 8.71955 12.0616 8.63292C12.0003 8.54628 11.7376 8.1455 11.7376 8.06789C11.7376 7.99028 11.6449 7.80809 11.5359 7.80809C11.4269 7.80809 11.405 7.99802 11.6089 8.40551C11.8129 8.81301 12.3157 9.13884 12.4746 9.13884C12.6335 9.13884 12.4746 9.50425 12.4746 9.50425L13.5556 9.78425C13.5556 9.78425 13.9673 9.57202 13.9673 9.50425C13.9673 9.43648 14.1825 9.2713 14.3733 9.2713C14.5642 9.2713 14.5793 9.50425 14.4763 9.50425C14.4255 9.50425 14.3534 9.5478 14.2805 9.59187C14.2057 9.63703 14.1301 9.68275 14.0754 9.68275C13.9673 9.68275 13.6369 9.91389 13.6369 9.91389H14.3733C14.3733 9.91389 14.2554 9.78425 14.5642 9.78425C14.8729 9.78425 15 9.91389 15 9.91389C15 9.91389 14.652 10.1181 14.5642 10.1181C14.542 10.1181 14.514 10.1226 14.4792 10.1283C14.4279 10.1366 14.3617 10.1474 14.2776 10.1494C14.254 10.1319 14.24 10.1357 14.232 10.1496C14.1571 10.1485 14.0694 10.1401 13.9673 10.1181C13.6369 10.0468 14.2264 10.2663 14.2264 10.2663C14.2264 10.2663 14.2135 10.1815 14.232 10.1496C14.2478 10.1499 14.263 10.1498 14.2776 10.1494C14.2999 10.166 14.3308 10.2018 14.3733 10.2663C14.5642 10.5556 14.5933 10.6457 14.3733 10.6457C14.1534 10.6457 13.9673 10.5788 13.9673 10.4225C13.9673 10.2663 13.5556 10.1181 13.5556 10.1181L13.0259 10.4225C13.0259 10.4225 13.1248 10.5923 12.9633 10.6457C12.8017 10.6992 12.574 10.6206 12.574 10.5672C12.574 10.5137 12.6275 10.2663 12.7647 10.2663C12.9019 10.2663 13.319 10.0395 13.319 10.0395L12.3097 9.738C12.3097 9.738 12.027 10.0395 11.934 10.0395C11.8864 10.0395 11.7928 9.847 11.6906 9.63675C11.5932 9.43649 11.488 9.22016 11.4073 9.13884C11.3567 9.08785 11.3119 9.0202 11.2685 8.95478C11.17 8.80629 11.0792 8.6693 10.9464 8.76474C10.755 8.90223 10.6791 9.32595 10.9464 9.68275C11.2137 10.0395 11.6763 10.3214 11.8052 10.3214C11.934 10.3214 12.1869 10.3336 12.1869 10.4225C12.1869 10.5115 12.0744 10.8758 11.8052 10.7215C11.7518 10.6909 11.6976 10.6591 11.6449 10.6281C11.4314 10.5026 11.2399 10.3901 11.2071 10.4225C11.1662 10.463 11.3346 10.9219 11.5699 11.0314C11.6732 11.0795 11.7691 11.076 11.8442 11.0732C11.9401 11.0697 12.002 11.0674 12.002 11.1754C12.002 11.3679 11.8357 11.5825 11.5359 11.3789C11.4034 11.289 11.294 11.1705 11.2086 11.078C11.1006 10.961 11.0308 10.8853 11.0005 10.9606C10.9464 11.0955 10.9694 11.6226 11.2071 11.6226C11.2619 11.6226 11.3127 11.6208 11.3585 11.6192C11.5117 11.6138 11.6089 11.6104 11.6089 11.682C11.6089 11.7749 11.5541 12.171 11.3058 12.013C11.0575 11.8549 10.8759 11.6579 10.8315 11.5184C10.7872 11.3789 10.5221 11.5179 10.6057 11.714C10.6892 11.9101 10.8922 12.3054 10.9464 12.3054C11.0005 12.3054 10.3169 13.5 10.3169 13.5L10.3125 12.0293Z" fill="#1A1A1A"/>
</g>
</svg>

<svg width="20" height="15" fill="none" xmlns="http://www.w3.org/2000/svg">
  <mask id="a" maskUnits="userSpaceOnUse" x="0" y="0" width="20" height="15">
    <path fill="#fff" d="M0 0h20v15H0z"/>
  </mask>
  <g mask="url(#a)" fill-rule="evenodd" clip-rule="evenodd">
    <path d="M0 0h20v15H0V0z" fill="#F50100"/>
    <path d="M10.313 12.03l-.005 1.47s-.684-1.195-.63-1.195c.055 0 .258-.395.341-.591.084-.196-.181-.335-.226-.196-.044.14-.225.337-.474.495-.248.158-.303-.238-.303-.331 0-.072.097-.068.25-.063.046.002.097.004.152.004.238 0 .26-.527.206-.662-.03-.076-.1 0-.208.117a1.856 1.856 0 01-.327.3c-.3.204-.466-.01-.466-.203 0-.108.062-.105.158-.102a.561.561 0 00.274-.042c.235-.11.404-.568.363-.609-.033-.032-.224.08-.438.206l-.16.094c-.27.154-.382-.21-.382-.3 0-.088.253-.1.382-.1s.591-.282.859-.64c.267-.356.19-.78 0-.917-.133-.096-.224.041-.322.19a1.229 1.229 0 01-.14.184c-.08.081-.185.297-.283.498-.102.21-.195.402-.243.402-.093 0-.376-.301-.376-.301l-1.009.302s.417.226.554.226c.138 0 .191.248.191.301 0 .054-.228.132-.39.079-.16-.054-.062-.224-.062-.224l-.53-.304s-.411.148-.411.304c0 .157-.186.224-.406.224-.22 0-.191-.09 0-.38a.49.49 0 01.095-.117h.046c.018.033.006.117.006.117s.59-.22.259-.148c-.102.022-.19.03-.265.032-.008-.014-.022-.018-.046 0a1.408 1.408 0 01-.201-.022.58.58 0 00-.085-.01c-.088 0-.436-.204-.436-.204s.127-.13.436-.13.19.13.19.13h.737s-.33-.231-.438-.231c-.055 0-.13-.046-.205-.091-.073-.044-.145-.088-.196-.088-.103 0-.088-.233.103-.233.19 0 .406.165.406.233s.411.28.411.28l1.081-.28s-.158-.365 0-.365c.16 0 .662-.326.866-.733.204-.408.182-.598.073-.598s-.202.182-.202.26c0 .078-.262.478-.324.565-.06.087-.278-.087-.125-.299.136-.188.13-.47.126-.607V7.68c0-.11-.28.11-.28.501s-.616.539-.788.539c-.173 0 0-.315.327-.387.258-.056.214-.391.184-.625a1.416 1.416 0 01-.015-.16c0-.191-.393.275-.546.519-.153.243-.788.828-.974.904-.186.076-.541-.166-.627-.34-.062-.126.13-.15.396-.182a5.88 5.88 0 00.309-.044c.4-.073.946-.857 1.05-1.008.103-.152-.154-.265-.294 0-.14.262-.825.51-1.05.59l-.004.002c-.22.08-.407-.28-.407-.44 0-.098.11-.078.284-.047.116.02.26.046.42.046.402 0 .897-.7.897-.874 0-.175-.22-.099-.377 0-.039.025-.084.06-.134.098-.15.115-.342.262-.536.262-.26 0-.468-.185-.468-.185s-.086-.274.13-.274h.597c.319 0 .838-.676.838-.802 0-.069-.247.04-.502.155-.213.095-.433.193-.522.193-.197 0-.627-.183-.627-.348 0-.07 0-.102.016-.116.022-.02.075-.005.2-.005.097 0 .19.025.291.051.126.033.266.07.445.07.22 0 .405-.17.525-.28.057-.053.1-.092.124-.092.075 0-.075-.256-.22-.256-.06 0-.15.044-.255.095-.15.073-.33.16-.5.16-.289 0-.626-.46-.626-.584 0-.123.161-.079.407 0 .245.079.423.135.975 0 .551-.135.22-.335.079-.335H6.252c-.407 0-.407-.587-.407-.698v-.001c0-.083.086-.036.294.08l.2.109c.275.147.647.12.912.1.075-.005.142-.01.195-.01.24 0-.14-.28-.14-.28s-.357 0-.968-.26c-.61-.259-.493-.969-.493-.969s.182-.253.304 0c.12.254.891.892 1.157.892.166 0 .161-.053.158-.097-.003-.027-.005-.051.032-.058.096-.018.87.243.87.243.315.023.363.488.363.764 0 .275.232.52.59.52.268 0 .16-.402.07-.737a2.829 2.829 0 01-.07-.297c-.045-.318-1.034-.502-1.034-.502-.35-.055-.293-.255-.293-.255.131-.005.323-.084.323-.084.211-.048-.869-.153-.869-.153-.24-.022-.14-.312-.14-.312 0-.131.103-.062.251.038.141.096.323.218.494.218.349 0-.102-.256-.228-.256h-.025c0-.004.307-.025.568-.177.162-.095.31-.038.5.036.166.064.363.14.63.14.325 0 .32.201.312.452-.005.191-.012.412.128.595.228.3.334.358.377.367.042-.009.148-.067.376-.367.14-.183.133-.404.128-.595-.008-.25-.013-.451.312-.451.267 0 .465-.077.63-.141.19-.074.338-.131.5-.036.261.152.568.173.568.176h-.025c-.126 0-.577.257-.228.257.17 0 .353-.122.494-.218.148-.1.251-.17.251-.038 0 0 .1.29-.14.312 0 0-1.08.105-.87.153 0 0 .193.079.325.084 0 0 .056.2-.294.255 0 0-.989.184-1.034.502-.012.08-.04.184-.07.297-.09.335-.198.737.07.737.358 0 .59-.245.59-.52 0-.276.048-.74.363-.764 0 0 .774-.26.87-.243.037.007.035.03.033.058-.004.044-.009.097.157.097.266 0 1.036-.638 1.157-.892.122-.253.304 0 .304 0s.117.71-.493.97-.968.26-.968.26-.38.28-.14.28c.053 0 .12.004.195.01.265.02.637.046.913-.101.076-.04.142-.078.199-.11.208-.115.294-.162.294-.08v.002c0 .11 0 .698-.407.698H13.32c-.14 0-.472.2.08.335.551.135.729.079.974 0 .246-.079.407-.123.407 0s-.337.585-.627.585c-.17 0-.35-.088-.5-.16-.105-.052-.195-.096-.255-.096-.144 0-.294.256-.22.256.025 0 .068.039.125.092.12.11.305.28.525.28.18 0 .32-.037.445-.07.102-.026.194-.05.291-.05.125 0 .178-.016.2.004.016.014.016.046.016.116 0 .165-.43.348-.627.348-.089 0-.309-.098-.522-.193-.255-.114-.502-.224-.502-.155 0 .126.519.802.838.802h.597c.216 0 .13.274.13.274s-.209.185-.468.185c-.194 0-.386-.147-.536-.262a1.904 1.904 0 00-.134-.098c-.158-.099-.377-.175-.377 0s.495.874.896.874c.16 0 .305-.026.421-.046.174-.031.284-.05.284.046 0 .161-.187.52-.407.441l-.004-.001c-.225-.082-.91-.329-1.05-.591-.14-.265-.397-.152-.293 0 .103.151.649.935 1.05 1.008.106.019.211.032.307.044.266.032.46.056.397.183-.086.173-.44.415-.627.34-.186-.077-.821-.662-.974-.905-.153-.244-.546-.71-.546-.519 0 .041-.007.097-.015.16-.03.234-.074.569.184.625.327.072.5.387.327.387-.172 0-.789-.148-.789-.539 0-.39-.278-.61-.278-.5l-.001.045c-.004.138-.01.419.126.607.153.212-.064.386-.125.299-.062-.087-.324-.487-.324-.565 0-.078-.093-.26-.202-.26-.11 0-.131.19.073.598.204.407.707.733.866.733.159 0 0 .365 0 .365l1.08.28s.412-.212.412-.28c0-.068.215-.233.406-.233.191 0 .206.233.103.233-.05 0-.123.044-.196.088-.074.045-.15.09-.205.09-.108 0-.438.232-.438.232h.736s-.118-.13.191-.13.436.13.436.13-.348.204-.436.204a.58.58 0 00-.085.01c-.051.009-.117.02-.201.021-.024-.017-.038-.013-.046 0a1.344 1.344 0 01-.265-.03c-.33-.072.26.147.26.147s-.014-.085.005-.116h.046a.489.489 0 01.095.116c.191.29.22.38 0 .38s-.406-.067-.406-.224c0-.156-.411-.304-.411-.304l-.53.304s.099.17-.063.224c-.161.053-.389-.025-.389-.079 0-.053.053-.3.19-.3.138 0 .555-.227.555-.227l-1.01-.302s-.282.302-.375.302c-.048 0-.141-.193-.243-.403-.098-.2-.203-.417-.284-.498-.05-.051-.095-.119-.139-.184-.098-.149-.189-.286-.322-.19-.191.137-.267.561 0 .918.268.357.73.638.86.638.128 0 .38.013.38.101 0 .09-.112.454-.38.3l-.161-.094c-.214-.125-.405-.238-.438-.206-.04.041.128.5.363.61a.56.56 0 00.274.041c.096-.003.158-.006.158.102 0 .193-.166.407-.466.204a1.897 1.897 0 01-.327-.301c-.108-.117-.178-.193-.208-.117-.055.134-.032.662.206.662.055 0 .106-.002.151-.004.154-.005.25-.009.25.063 0 .093-.054.489-.302.331-.248-.158-.43-.355-.474-.495-.045-.14-.31 0-.226.196.083.196.286.591.34.591.055 0-.63 1.195-.63 1.195l-.004-1.47z" fill="#1A1A1A"/>
  </g>
</svg>
